X:150
U: ~ = !turn!
%%topmargin 3cm
T:O'Neill's Hornpipe
B:Traditional Irish Fiddle Tunes. Randy Miller and Jack Perron.
S:Michael Coleman
Z:Transcribed by Ralph Palmer
R:Hornpipe
M:C|
L:1/8
K:G
Bc | dBGB cAFA | GBAF G2 Bc | dg (3{/a}(gfg) eg (3{/a}(gfg) | dBGB A2 Bc |
dBGB cAFA | GBAF G2 Bc | ((3gfe) fd ecAF | GBAF G2 Bc |
dBGB A2 FA | GBAF G2 Bc | d^cdg edef | gdBG A2 Bc |
d2 JdB cB A2 | BAGF GABd | ((3gfe) fd ecAF | GBAF G2 Bc ||
|: dg (3{/a}(gfg) eg (3{/a}(gfg) | dg (3{/a}(gfg) edBc | dg (3{/a}(gfg) eg (3{/a}(gfg) "(A"| dBGB A2 Bc "A)"|
dcdB cB A2 | BAGF GABd | ((3gfe) fd ecAF | GBAF G2 :|]
xxxx "(A"| bgdB A2 Bc "A)"| xxxx xxxx [|] xxxx xxxx [|]
